assets/svg/add.svg

<svg xmlns="http://www.w3.org/2000/svg" width="25" height="25" fill="none"><circle cx="12.5" cy="12.5" r="12" fill="#fff" stroke="#FF6C00"/><path fill="#FF6C00" fill-rule="evenodd" d="M13 6h-1v6H6v1h6v6h1v-6h6v-1h-6V6Z" clip-rule="evenodd"/></svg>

<svg width="25" height="25" viewBox="0 0 25 25" fill="none" xmlns="http://www.w3.org/2000/svg">
<circle cx="12.5" cy="12.5" r="12" fill="white" stroke="#FF6C00"/>
<path fill-rule="evenodd" clip-rule="evenodd" d="M13 6H12V12H6V13H12V19H13V13H19V12H13V6Z" fill="#FF6C00"/>
</svg>
